public/images/flexible.svg

<svg width="24" height="24" viewBox="0 0 24 24" fill="none" xmlns="http://www.w3.org/2000/svg">
<path d="M21.6001 11.352V21.6C21.6001 22.2365 21.3472 22.847 20.8971 23.2971C20.4471 23.7471 19.8366 24 19.2001 24H15.6001C14.9636 24 14.3531 23.7471 13.903 23.2971C13.453 22.847 13.2001 22.2365 13.2001 21.6V16.8H10.8001V21.6C10.8001 22.2365 10.5472 22.847 10.0972 23.2971C9.64707 23.7471 9.03662 24 8.40011 24H4.80011C4.16359 24 3.55314 23.7471 3.10306 23.2971C2.65297 22.847 2.40011 22.2365 2.40011 21.6V11.352C1.67114 10.9311 1.06567 10.326 0.644423 9.59723C0.223179 8.86847 0.000979502 8.04176 0.000116123 7.20002V6.00002C-0.00248382 5.81313 0.0386077 5.62822 0.120116 5.46002L2.52011 0.660028C2.62075 0.460306 2.77519 0.29268 2.96602 0.176062C3.15685 0.059443 3.37647 -0.00152732 3.60011 2.90689e-05H20.4001C20.6237 -0.00152732 20.8434 0.059443 21.0342 0.176062C21.225 0.29268 21.3795 0.460306 21.4801 0.660028L23.8801 5.46002C23.9521 5.62802 24.0001 5.82002 24.0001 6.00002V7.20002C23.9992 8.04176 23.777 8.86847 23.3558 9.59723C22.9345 10.326 22.3291 10.9311 21.6001 11.352ZM19.2001 12C17.7601 12 16.4761 11.376 15.6001 10.38C15.1507 10.8925 14.5971 11.3031 13.9763 11.5844C13.3554 11.8658 12.6817 12.0113 12.0001 12.0113C11.3185 12.0113 10.6448 11.8658 10.0239 11.5844C9.4031 11.3031 8.84948 10.8925 8.40011 10.38C7.94969 10.8904 7.39562 11.299 6.77484 11.5783C6.15406 11.8577 5.48085 12.0014 4.80011 12V21.6H8.40011V16.8C8.40011 15.48 9.4801 14.4 10.8001 14.4H13.2001C13.8366 14.4 14.4471 14.6529 14.8972 15.103C15.3472 15.553 15.6001 16.1635 15.6001 16.8V21.6H19.2001V12ZM21.6001 7.20002H16.8001C16.8001 7.83654 17.053 8.44699 17.503 8.89707C17.9531 9.34716 18.5636 9.60002 19.2001 9.60002C19.8366 9.60002 20.4471 9.34716 20.8971 8.89707C21.3472 8.44699 21.6001 7.83654 21.6001 7.20002ZM14.4001 7.20002H9.6001C9.6001 7.83654 9.85296 8.44699 10.303 8.89707C10.7531 9.34716 11.3636 9.60002 12.0001 9.60002C12.6366 9.60002 13.2471 9.34716 13.6972 8.89707C14.1472 8.44699 14.4001 7.83654 14.4001 7.20002ZM7.20011 7.20002H2.40011C2.40011 7.83654 2.65297 8.44699 3.10306 8.89707C3.55314 9.34716 4.16359 9.60002 4.80011 9.60002C5.43663 9.60002 6.04708 9.34716 6.49716 8.89707C6.94725 8.44699 7.20011 7.83654 7.20011 7.20002ZM20.8561 4.80002L19.6561 2.40003H4.34411L3.14411 4.80002H20.8561Z" fill="white"/>
</svg>

<svg xmlns="http://www.w3.org/2000/svg" width="24" height="24" fill="none"  xmlns:v="https://vecta.io/nano"><path d="M21.6 11.352V21.6a2.4 2.4 0 0 1-2.4 2.4h-3.6a2.4 2.4 0 0 1-2.4-2.4v-4.8h-2.4v4.8A2.4 2.4 0 0 1 8.4 24H4.8a2.4 2.4 0 0 1-2.4-2.4V11.352A4.8 4.8 0 0 1 0 7.2V6a1.2 1.2 0 0 1 .12-.54l2.4-4.8a1.2 1.2 0 0 1 .446-.484A1.2 1.2 0 0 1 3.6 0h16.8a1.2 1.2 0 0 1 1.08.66l2.4 4.8c.072.168.12.36.12.54v1.2a4.8 4.8 0 0 1-2.4 4.152zM19.2 12a4.77 4.77 0 0 1-3.6-1.62 4.79 4.79 0 0 1-1.624 1.204c-.621.281-1.295.427-1.976.427s-1.355-.146-1.976-.427A4.79 4.79 0 0 1 8.4 10.38a4.79 4.79 0 0 1-1.625 1.198c-.621.279-1.294.423-1.975.422v9.6h3.6v-4.8a2.41 2.41 0 0 1 2.4-2.4h2.4a2.4 2.4 0 0 1 2.4 2.4v4.8h3.6V12zm2.4-4.8h-4.8a2.4 2.4 0 0 0 2.4 2.4 2.4 2.4 0 0 0 2.4-2.4zm-7.2 0H9.6A2.4 2.4 0 0 0 12 9.6a2.4 2.4 0 0 0 2.4-2.4zm-7.2 0H2.4a2.4 2.4 0 0 0 2.4 2.4 2.4 2.4 0 0 0 2.4-2.4zm13.656-2.4l-1.2-2.4H4.344l-1.2 2.4h17.712z" fill="#fff"/></svg>
